public/icons/exclamation-circle-filled-sm.svg

<svg xmlns="http://www.w3.org/2000/svg" width="24" height="24" fill="none" class="fill-highlight" viewBox="0 0 24 24">
  <circle cx="12" cy="12" r="11"/>
  <path fill="currentColor" d="M10.8 16.65c0-.75.5999-1.2001 1.3499-1.2001.6 0 1.2001.4501 1.2001 1.2001s-.6001 1.1999-1.2001 1.1999c-.9 0-1.3499-.4499-1.3499-1.1999Zm.75-3L11.1 6h1.7999l-.4499 7.65h-.9Z"/>
</svg>

<svg role="img" width="24" height="24" viewBox="0 0 24 24" fill="none" xmlns="http://www.w3.org/2000/svg" class="fill-highlight">
<circle cx="12" cy="12" r="11" />
<path d="M10.7998 16.65C10.7998 15.9 11.3997 15.4499 12.1497 15.4499C12.7497 15.4499 13.3498 15.9 13.3498 16.65C13.3498 17.4 12.7497 17.8499 12.1497 17.8499C11.2497 17.8499 10.7998 17.4 10.7998 16.65ZM11.5498 13.65L11.0998 6H12.8997L12.4498 13.65H11.5498Z" fill="currentColor"/>
</svg>
